X:7
T:Hora floraselor
R:hora
S:Marcel Budala on Youtube
Z:id:hn-hora-7
M:C|
L:1/8
K:Dphr ^f
cdd2 d2dc | dcfd cBAG | Bcc2 c2c2 | cBcd cBAG |
Bcc2 cBBA | cFGA BGAB | cBBA AFGA | FECE D4 :|
|: GFGA BAAG | GFGA BGAB | cBBA AFGA | FECE DDDD |
GFGA B2AG | GFGA BGAB | cBBA AFGA | FECE D4 :|
|: DEFD FGFD | DEFG GAFD | FCDE FGFD | EA,C2 DA,FA, |
DEFD FGFD | DEFG GAFD | FCDE FGFD | EA,C2 D4 :|
|: AB^c2 cdBA | AFGA ABAG | FCDE FGFD | EA,C2 D4 |
AB^c2 cdBA | AFGA ABAG | FCDE FGFD | EA,C2 D4 :|
|: DEFD FGFD | DEFG GAFD | FCDE FGFD | EA,C2 D4 |
DEFD FGFD | DEFG GAFD | FCDE FGFD | EA,C2 D4 :|

